src/icons/move.svg

<svg xmlns="http://www.w3.org/2000/svg" width="8" height="8" viewBox="0 0 8 8">
  <path d="M3.5 0l-1.5 1.5h1v1.5h-1.5v-1l-1.5 1.5 1.5 1.5v-1h1.5v1.5h-1l1.5 1.5 1.5-1.5h-1v-1.5h1.5v1l1.5-1.5-1.5-1.5v1h-1.5v-1.5h1l-1.5-1.5z" />
</svg>

<svg xmlns="http://www.w3.org/2000/svg" viewBox="0 0 8 8"><path d="M3.5 0L2 1.5h1V3H1.5V2L0 3.5 1.5 5V4H3v1.5H2L3.5 7 5 5.5H4V4h1.5v1L7 3.5 5.5 2v1H4V1.5h1L3.5 0z"/></svg>
